X: 37329
T: Skylark, The
R: reel
M: 4/4
K: Cmajor
|:A|G2 ge decA|GEE2 CEGc|AFF2 DEFD|EGG2 EGce|
gfef decA|GEE2 CEGc|AFF2 Dagf|egdf ecc:|
|:e|g2 ec Gcec|dedc BGG2|g2 eg agec|Addc defd|
[1 (3efg eg f2 af|egdB cAAF|EGcG FAdc|Bdgf ecc:|
[2 egg2 faa2|gede cAAF|EGcG FAdc|Bagf ecc2||

